exported-svg/toggle-left.svg

<svg height="24" viewBox="0 0 24 24" width="24" xmlns="http://www.w3.org/2000/svg"><path d="m8.5 5h8c4.1421356 0 7.5 3.35786438 7.5 7.5 0 4.1421356-3.3578644 7.5-7.5 7.5h-8c-4.14213562 0-7.5-3.3578644-7.5-7.5 0-4.14213562 3.35786438-7.5 7.5-7.5zm0 1c-3.58985087 0-6.5 2.91014913-6.5 6.5 0 3.5898509 2.91014913 6.5 6.5 6.5h8c3.5898509 0 6.5-2.9101491 6.5-6.5 0-3.58985087-2.9101491-6.5-6.5-6.5zm0 10c-1.93299662 0-3.5-1.5670034-3.5-3.5s1.56700338-3.5 3.5-3.5c1.9329966 0 3.5 1.5670034 3.5 3.5s-1.5670034 3.5-3.5 3.5zm0-1c1.38071187 0 2.5-1.1192881 2.5-2.5s-1.11928813-2.5-2.5-2.5-2.5 1.1192881-2.5 2.5 1.11928813 2.5 2.5 2.5z"/></svg>

<?xml version="1.0" encoding="UTF-8"?>
<svg width="24px" height="24px" viewBox="0 0 24 24" version="1.1" xmlns="http://www.w3.org/2000/svg" xmlns:xlink="http://www.w3.org/1999/xlink">
    <!-- Generator: Sketch 55.2 (78181) - https://sketchapp.com -->
    <title>toggle-left</title>
    <desc>Created with Sketch.</desc>
    <g id="toggle-left" stroke="none" stroke-width="1" fill="none" fill-rule="evenodd">
        <path d="M8.5,5 L16.5,5 C20.6421356,5 24,8.35786438 24,12.5 C24,16.6421356 20.6421356,20 16.5,20 L8.5,20 C4.35786438,20 1,16.6421356 1,12.5 C1,8.35786438 4.35786438,5 8.5,5 Z M8.5,6 C4.91014913,6 2,8.91014913 2,12.5 C2,16.0898509 4.91014913,19 8.5,19 L16.5,19 C20.0898509,19 23,16.0898509 23,12.5 C23,8.91014913 20.0898509,6 16.5,6 L8.5,6 Z" id="Rectangle-path" fill="#000000" fill-rule="nonzero"></path>
        <path d="M8.5,16 C10.4329966,16 12,14.4329966 12,12.5 C12,10.5670034 10.4329966,9 8.5,9 C6.56700338,9 5,10.5670034 5,12.5 C5,14.4329966 6.56700338,16 8.5,16 Z M8.5,15 C7.11928813,15 6,13.8807119 6,12.5 C6,11.1192881 7.11928813,10 8.5,10 C9.88071187,10 11,11.1192881 11,12.5 C11,13.8807119 9.88071187,15 8.5,15 Z" id="Oval" fill="#000000" fill-rule="nonzero"></path>
    </g>
</svg>
